X:216
T:Thunderhead
C:composed by Grey Larsen
S:source: Angus Session Podcast
F:http://blackrosetheband.googlepages.com/ABCTUNES.ABC May 2009
M:6/8
R:jig
K:Bm
ABB fBB| eBB dBA|BBB fgf|edB ABd|
ABB fBB| eBB def|gfe f3|edB ABd:||
|:afd edB|ABd ccc|Bcc Bcc|dcB c3|
afd edB|ABd cBc|d2B c2a|1 gec dfg:|2 gec dc=c||
%1st time thru B Part, play 2nd ending w/no repeat
%2nd time, play second ending gec d3, then to beginning
